svgs/sharp-regular/arrow-up-wide-short.svg

<svg xmlns="http://www.w3.org/2000/svg" viewBox="0 0 576 512"><!--! Font Awesome Pro 6.6.0 by @fontawesome - https://fontawesome.com License - https://fontawesome.com/license (Commercial License) Copyright 2024 Fonticons, Inc. --><path d="M111 50.2l17-17 17 17 96 96 17 17L224 197.1l-17-17-55-55L152 456l0 24-48 0 0-24 0-330.9-55 55-17 17L-1.9 163.2l17-17 96-96zM312 480l-24 0 0-48 24 0 48 0 24 0 0 48-24 0-48 0zm0-128l-24 0 0-48 24 0 112 0 24 0 0 48-24 0-112 0zm0-128l-24 0 0-48 24 0 176 0 24 0 0 48-24 0-176 0zm0-128l-24 0 0-48 24 0 240 0 24 0 0 48-24 0L312 96z"/></svg>

<svg xmlns="http://www.w3.org/2000/svg" viewBox="0 0 576 512"><!--! Font Awesome Pro 6.4.0 by @fontawesome - https://fontawesome.com License - https://fontawesome.com/license (Commercial License) Copyright 2023 Fonticons, Inc. --><path d="M111 50.2l17-17 17 17 96 96 17 17L224 197.1l-17-17-55-55V456v24H104V456 125.1l-55 55-17 17L-1.9 163.2l17-17 96-96zM312 480H288V432h24 48 24v48H360 312zm0-128H288V304h24H424h24v48H424 312zm0-128H288V176h24H488h24v48H488 312zm0-128H288V48h24H552h24V96H552 312z"/></svg>
